X:1
T: Castle Hill
C:Muriel A Johnstone
R:Jig
%Q:180
K:G
M:6/8
L:1/16
|:D2|G6 B2G2B2|d2B2d2 g2d2B2|c2A2c2 e2c2e2|a2f2d2 c2B2A2|
G6 B2G2B2|d2B2d2 g2d2B2|c4A2 F4d2|B2G2G2 G4:|
|:d2|b6 a2g2f2|g2f2e2 f2e2d2|e4c2 A4G2|
|1F2A2A2 A4a2|b6 a2g2f2|g2f2e2 f2e2d2|e4c2 A4d2|B2G2G2 G4:|
|2F2G2A2 A2G2F2|G6 B2G2B2|d2B2d2 g2d2B2|c4A2 F4d2|B2G2G2 G4||
